X:1
T:Title
%%score { 1 | 2 }
L:1/8
M:2/4
K:F
V:1 treble nm="Grand Piano"
V:2 treble 
V:1
 z2[Q:1/4=86] A2 | A2 GG | G2 [EA][EB] | A4 | F2 c2 | c2 dc | f2 ed | c4- | c2 c2 | c2 BB | %10
 [Gd]2 [CGc][DGB] | [^CGB]2 [CGA][CGA] | [DFA]2 [DFA]2 | [DFA]2 [DFG][DFG] | [DEB]2 [CEA][B,EG] | %15
 [B,EG]2 [A,DF][A,DF] | [A,DF]2 [A,D^F]2 | [G,DG]2 [DA][DB] | E2 FG | F4- |[M:1/4] F2 |] %21
V:2
 z2 [F,CF]2 | [B,DF]2 [B,DF][B,DF] | [CE]2[K:bass] [C,C][C,C] | [F,CF]4 | [F,A,]2 [F,A,F]2 | %5
 [G,B,E]2 [G,B,E][G,B,E] | [A,CF]2 [A,CF][A,CF] | [B,CE]4- | [B,CE]2 [A,CF]2 | %9
 [G,DG]2 [G,DG][G,DG] | [E,B,]2 E,E, | E,2 A,,A,, | D,2 C,2 | B,,2 B,,B,, | C,2 C,C, | D,2 D,D, | %16
 D,2 C,2 | B,,2 [A,,^F,][G,,G,] | [C,G,C]2 [C,A,C][C,B,C] | [F,A,C]4- |[M:1/4] [F,A,C]2 |] %21

